X: 01010
T: BOBBI ROJO
C: Bob McQuillen '74
B: Bob's Note Book 1 #10
%R: reel, polka
Z: 2019 John Chambers <jc:trillian.mit.edu>
M: C
L: 1/8
K: D
z2 \
| ABAG FGA2 | f2fd A4 | GAGF EFG2 | ABcd egfe |
| ABAG FGA2 | f2fd A4 | GAGF EAce | d2f2 d2  :|
|: FG \
| A4 B4 | A6 DE | F2D2 A,2D2 | EDEF E2FG |
| A4 B4 | A6 DE | FABA GFED |1 CDEF D2 :|2 CDEF D4 |]
%%begintext align
%% To Nancy Dunlap + Bobbi Welch, with love always.
%%endtext

%%sep 1 1 500

%%sep 1 1 500

